X:1
T:No Room in the Inn
T:E. Grace Updegraff
T:No Room in the Inn
T:Public Domain
T:Public Domain
C:E. Grace Updegraff
Z:Public Domain
%%score ( 1 2 ) ( 3 4 )
L:1/8
M:6/8
K:G
V:1 treble 
V:2 treble 
V:3 bass 
V:4 bass 
V:1
 [B,D]3 [B,D][B,E][DG] | [CF]3 [CD]3 | [B,D]3 [B,D][B,E][DG] | [CF]6 | [EG]3 [EG][EF][EG] | %5
w: 1.No beau- ti- ful|cham- ber,|no soft cra- dle|bed,|No place but a|
w: 2.No sweet con- se-|cra- tion,|no seek- ing His|part,|No hu- mil- i-|
w: 3.~No one to re-|ceive Him,|no wel- come while|here,|No balm to re-|
 [GB]3 [EG]3 | [EG]3 [EA][EA][G^A] | [FB]6 | [FB]3 [FA][FB][FA] | [DG]3 D3 | [Fd]3 [DA][DG][FA] | %11
w: man- ger,|no- where for His|head;|No prais- es of|glad- ness,|thought of their sin,|
w: a- tion,|no place in the|heart;|No thought of the|Sav- ior,|sor- row for sin,|
w: lieve Him,|no staff but a|spear;|No seek- ing His|trea- sure,|weep- ing for sin,|
 [GB]6 | [GB]3 [GB][Gc][Gd] | [Gc]3 [CE]3 | [B,D]3 [A,D][B,D][CD] | [B,D]3- [B,D]2 || %16
w: No|glor- y but sad-|ness, no|room in the inn.||
w: No|prayer for His fa-|vor, no|room in the inn.||
w: No|do- ing His plea-|sure, no|room in the inn.||
"^Refrain" [Dd] | [Fd]2 [FA] (AB)[FA] | [DG]3 [GB]2 [GB] | [GA]2 [GA] [GB]2 [GA] | %20
w: ||||
w: ||||
w: ||||
 [FA]3- [FA]2 [Fd] | [Gd]2 [Gc] [GB]2 [DA] | [EG]2 [EA] [^DB]2 [EA] | [DG]2 D [^CE]2 [=CF] | %24
w: ||||
w: ||||
w: ||||
 [B,G]6 |] %25
w: |
w: |
w: |
V:2
 x6 | x6 | x6 | x6 | x6 | x6 | x6 | x6 | x6 | x3 D3 | x6 | x6 | x6 | x6 | x6 | x5 || x | x3 F2 x | %18
w: |||||||||no|||||||||
w: |||||||||no|||||||||
w: |||||||||no|||||||||
 x6 | x6 | x6 | x6 | x6 | x6 | x6 |] %25
w: |||||||
w: |||||||
w: |||||||
V:3
 [G,,G,]3 [G,,G,][G,,G,][G,B,] | A,3 [D,F,]3 | [G,,G,]3 [G,,G,][G,,G,][G,B,] | A,6 | %4
w: ~ ~ ~ ~|~ ~|~ ~ ~ ~|~|
 [E,B,]3 [E,B,][E,A,][E,B,] | [E,E]3 [E,B,]3 | [C,C]3 [C,C][C,C][C,E] | [B,,^D]6 | %8
w: ~ ~ ~ ~|~ ~|~ ~ ~ ~|~|
 [D,D]3 [D,C][D,D][D,C] | [G,B,]3 [G,B,]3 | [D,D]3 [D,C][D,B,][D,D] | [G,D]6 | %12
w: ~ ~ ~ ~|~ ~|~ ~ ~ ~|~|
 [G,D]3 [=F,D][F,D][F,D] | [E,E]3 [C,G,]3 | [D,G,]3 [D,F,][D,G,][D,A,] | [G,,G,]3- [G,,G,]2 || %16
w: ~ ~ ~ ~|~ ~|~ ~ ~ No|room, *|
 [G,B,] | [D,A,]2 [D,D] (CD)[D,C] | [G,B,]3 [G,D]2 [G,D] | [A,^C]2 [A,C] [A,C]2 [A,C] | %20
w: no|room, for Je- * sus,|give Him wel-|come free, Lest you|
 [D,D]3- [D,D]2 [D,C] | [G,B,]2 [G,E] [G,D]2 [G,C] | [E,B,]2 [C,A,] [B,,F,]2 [C,A,] | %23
w: should * hear|at Hea- ven’s gate,|“There is no room|
 [D,B,]2 [D,B,] [D,A,]2 [D,A,] | [G,,G,]6 |] %25
w: for thee.” * *||
V:4
 x6 | A,3 x3 | x6 | A,6 | x6 | x6 | x6 | x6 | x6 | x6 | x6 | x6 | x6 | x6 | x6 | x5 || x | %17
w: |~||~||||||||||||||
 x3 D,2 x | x6 | x6 | x6 | x6 | x6 | x6 | x6 |] %25
w: O||||||||

